svg/blobs-icons/no-decorations/sausage.svg

<svg xmlns="http://www.w3.org/2000/svg" xmlns:xlink="http://www.w3.org/1999/xlink" preserveAspectRatio="xMidYMid" width="218" height="160" viewBox="0 0 218 160"><defs><style>.cls-3{fill:#ff3a2f}.cls-4{fill:#fff}.cls-5{fill:#020403;opacity:.35}</style></defs><g id="group-111svg"><path d="M19.024 129.265s5.189 34.661 39.416 29.492C92.664 153.582 186.527 128.749 208.824 52.178c7.78-36.74-35.776-42.949-49.261-29.234-13.482 13.706-27.191 40.38-47.712 51.995C89.226 87.746 12.025 92.53 19.024 129.265z" id="path-1" class="cls-3" fill-rule="evenodd"/><path d="M28.08 135.897C26.379 135.897 24.863 134.691 24.533 132.958c-4.6-24.14 27.146-32.721 52.652-39.614C86.849 90.733 95.975 88.266 100.924 85.465 102.663 84.481 104.866 85.091 105.85 86.829 106.833 88.568 106.223 90.772 104.485 91.757 98.743 95.007 89.626 97.471 79.072 100.323c-22.626 6.114-50.784 13.725-47.437 31.282C32.009 133.566 30.721 135.459 28.76 135.832 28.533 135.877 28.304 135.897 28.08 135.897z" id="path-2" class="cls-4" fill-rule="evenodd"/><path d="M179.366 16.262C188.968 21.486 195.577 31.753 192.136 48.005c-22.297 76.571-116.16 101.404-150.384 106.58C39.622 154.907 37.607 155.072 35.697 155.104 41.294 158.4 48.647 160.235 58.44 158.757 92.664 153.582 186.527 128.748 208.824 52.178c5.261-24.841-12.944-35.709-29.458-35.916z" id="path-3" class="cls-5" fill-rule="evenodd"/><path d="M191.064 18.243S183.476.01 183.476.01s12.198 6.082 12.198 6.082 14.074-2.071 14.074-2.071S216.876 10.929 216.876 10.929s-24.74 7.698-24.74 7.698-1.072-.384-1.072-.384z" id="path-4" class="cls-3" fill-rule="evenodd"/><path d="M187.329 6.091S193.773 5.143 193.773 5.143 183.476.01 183.476.01s2.185 5.249 2.185 5.249S187.329 6.091 187.329 6.091z" id="path-5" class="cls-5" fill-rule="evenodd"/><path d="M209.747 4.021S202.503 5.086 202.503 5.086 208.532 10.929 208.532 10.929s-18.16 5.652-18.16 5.652S191.064 18.243 191.064 18.243s1.072.384 1.072.384 24.74-7.698 24.74-7.698S209.747 4.021 209.747 4.021z" id="path-6" class="cls-5" fill-rule="evenodd"/><path d="M21.833 141.078s-11.774 15.866-11.774 15.866S9.02 143.375 9.02 143.375.002 132.401.002 132.401 2.282 122.745 2.282 122.745 21.618 139.96 21.618 139.96s.215 1.118.215 1.118z" id="path-7" class="cls-3" fill-rule="evenodd"/><path d="M20.383 138.861s-10.324 13.911-10.324 13.911S9.02 139.204 9.02 139.204.767 129.16.767 129.16.002 132.401.002 132.401 9.02 143.375 9.02 143.375s1.039 13.569 1.039 13.569 11.774-15.866 11.774-15.866-.215-1.118-.215-1.118S20.383 138.861 20.383 138.861z" id="path-8" class="cls-5" fill-rule="evenodd"/></g></svg>

<svg xmlns="http://www.w3.org/2000/svg" xmlns:xlink="http://www.w3.org/1999/xlink" preserveAspectRatio="xMidYMid" width="218" height="160" viewBox="0 0 218 160">
  <defs>
    <style>

      .cls-3 {
        fill: #ff3a2f;
      }

      .cls-4 {
        fill: #ffffff;
      }

      .cls-5 {
        fill: #020403;
        opacity: 0.35;
      }
    </style>
  </defs>
  <g id="group-111svg">
    <path d="M19.024,129.265 C19.024,129.265 24.213,163.926 58.440,158.757 C92.664,153.582 186.527,128.749 208.824,52.178 C216.604,15.438 173.048,9.229 159.563,22.944 C146.081,36.650 132.372,63.324 111.851,74.939 C89.226,87.746 12.025,92.530 19.024,129.265 Z" id="path-1" class="cls-3" fill-rule="evenodd"/>
    <path d="M28.080,135.897 C26.379,135.897 24.863,134.691 24.533,132.958 C19.933,108.818 51.679,100.237 77.185,93.344 C86.849,90.733 95.975,88.266 100.924,85.465 C102.663,84.481 104.866,85.091 105.850,86.829 C106.833,88.568 106.223,90.772 104.485,91.757 C98.743,95.007 89.626,97.471 79.072,100.323 C56.446,106.437 28.288,114.048 31.635,131.605 C32.009,133.566 30.721,135.459 28.760,135.832 C28.533,135.877 28.304,135.897 28.080,135.897 Z" id="path-2" class="cls-4" fill-rule="evenodd"/>
    <path d="M179.366,16.262 C188.968,21.486 195.577,31.753 192.136,48.005 C169.839,124.576 75.976,149.409 41.752,154.585 C39.622,154.907 37.607,155.072 35.697,155.104 C41.294,158.400 48.647,160.235 58.440,158.757 C92.664,153.582 186.527,128.748 208.824,52.178 C214.085,27.337 195.880,16.469 179.366,16.262 Z" id="path-3" class="cls-5" fill-rule="evenodd"/>
    <path d="M191.064,18.243 C191.064,18.243 183.476,0.010 183.476,0.010 C183.476,0.010 195.674,6.092 195.674,6.092 C195.674,6.092 209.748,4.021 209.748,4.021 C209.748,4.021 216.876,10.929 216.876,10.929 C216.876,10.929 192.136,18.627 192.136,18.627 C192.136,18.627 191.064,18.243 191.064,18.243 Z" id="path-4" class="cls-3" fill-rule="evenodd"/>
    <path d="M187.329,6.091 C187.329,6.091 193.773,5.143 193.773,5.143 C193.773,5.143 183.476,0.010 183.476,0.010 C183.476,0.010 185.661,5.259 185.661,5.259 C185.661,5.259 187.329,6.091 187.329,6.091 Z" id="path-5" class="cls-5" fill-rule="evenodd"/>
    <path d="M209.747,4.021 C209.747,4.021 202.503,5.086 202.503,5.086 C202.503,5.086 208.532,10.929 208.532,10.929 C208.532,10.929 190.372,16.581 190.372,16.581 C190.372,16.581 191.064,18.243 191.064,18.243 C191.064,18.243 192.136,18.627 192.136,18.627 C192.136,18.627 216.876,10.929 216.876,10.929 C216.876,10.929 209.747,4.021 209.747,4.021 Z" id="path-6" class="cls-5" fill-rule="evenodd"/>
    <path d="M21.833,141.078 C21.833,141.078 10.059,156.944 10.059,156.944 C10.059,156.944 9.020,143.375 9.020,143.375 C9.020,143.375 0.002,132.401 0.002,132.401 C0.002,132.401 2.282,122.745 2.282,122.745 C2.282,122.745 21.618,139.960 21.618,139.960 C21.618,139.960 21.833,141.078 21.833,141.078 Z" id="path-7" class="cls-3" fill-rule="evenodd"/>
    <path d="M20.383,138.861 C20.383,138.861 10.059,152.772 10.059,152.772 C10.059,152.772 9.020,139.204 9.020,139.204 C9.020,139.204 0.767,129.160 0.767,129.160 C0.767,129.160 0.002,132.401 0.002,132.401 C0.002,132.401 9.020,143.375 9.020,143.375 C9.020,143.375 10.059,156.944 10.059,156.944 C10.059,156.944 21.833,141.078 21.833,141.078 C21.833,141.078 21.618,139.960 21.618,139.960 C21.618,139.960 20.383,138.861 20.383,138.861 Z" id="path-8" class="cls-5" fill-rule="evenodd"/>
  </g>
</svg>
